svg/audio_video_off.svg

<svg xmlns="http://www.w3.org/2000/svg" viewBox="0 0 24 24"><path d="M22.1 21.5 2.4 1.7 1.1 3l4 4H4c-1.1 0-2 .9-2 2v6c0 1.1.9 2 2 2h1v1c0 .6.4 1 1 1h2c.6 0 1-.4 1-1v-1h6v1c0 .6.4 1 1 1h1.1l3.7 3.7zM6 15H4v-1h2zm-2-3v-2h4.1l2 2zm6 3H8v-1h2zm2 0v-1h.1l1 1zm2-5v.8l6.2 6.2c1-.1 1.8-.9 1.8-2V9c0-1.1-.9-2-2-2h-9.8l3 3zm4-1c1.1 0 2 .9 2 2s-.9 2-2 2-2-.9-2-2 .9-2 2-2"/></svg>

<?xml version="1.0" encoding="UTF-8"?><!DOCTYPE svg PUBLIC "-//W3C//DTD SVG 1.1//EN" "http://www.w3.org/Graphics/SVG/1.1/DTD/svg11.dtd"><svg xmlns="http://www.w3.org/2000/svg" xmlns:xlink="http://www.w3.org/1999/xlink" version="1.1" id="mdi-audio-video-off" width="24" height="24" viewBox="0 0 24 24"><path d="M22.1 21.5L2.4 1.7L1.1 3L5.1 7H4C2.9 7 2 7.9 2 9V15C2 16.1 2.9 17 4 17H5V18C5 18.6 5.4 19 6 19H8C8.6 19 9 18.6 9 18V17H15V18C15 18.6 15.4 19 16 19H17.1L20.8 22.7L22.1 21.5M6 15H4V14H6V15M4 12V10H8.1L10.1 12H4M10 15H8V14H10V15M12 15V14H12.1L13.1 15H12M14 10V10.8L20.2 17C21.2 16.9 22 16.1 22 15V9C22 7.9 21.1 7 20 7H10.2L13.2 10H14M18 9C19.1 9 20 9.9 20 11S19.1 13 18 13 16 12.1 16 11 16.9 9 18 9Z" /></svg>
